X:137
T: Der betrogene Ehemann (2-39) S. 125
N: P0912
O: Lothringen
S: PINCK, Louis: Verklingende Weisen, Bd 2, Metz 1928]
R: Untreue]
M: 4/4
L: 1/16
K: G
D4 | G6F2G4A2A2 | G4E4D4z4
G8A8 | B8z4
D4 | G6F2G4A4 | G4E4D4z4
G8A8 | B8z4
d4 | A6A2A4A2B2 | A12
B4 | A8B4^c4 | d4d4A4z4
d8c4A4 | G8z8
d4d4e8 | d4d4B4
d2d2 | d4c2c2B4e4 | e6d2d4z4
d4d4e8 | d4d4B4 |  |  |  |  |  |  |  |  |  |  |  |  |  |  |  |  |  |  |  |  |  |  |  |  |  |  |  |  |  |  |  |  |  |  |  |  |  |  |  |  |  |  |  | 
d2d2 | d4c2c2B4A4 | G12z4 |  |  |  |  |  |  |  |  |  |  |  |  |  |  |  |  |  |  |  |  |  |  |  |  |  |  |  |  |  |  |  |  |  |  |  | 
a4A4F4D4 | G4B4d4z4 |  |  |  |  |  |  |  |  |  |  |  |  |  |  |  |  |  |  |  |  |  |  |  |  |  |  |  |  |  |  |  |  |  |  |  |  | 
d8c4A4 | G3FE4D4 |  |  |  |  |  |  |  |  |  |  |  |  |  |  |  |  |  |  |  |  |  |  |  |  |  |  |  |  |  |  |  |  |  |  |  |  |  |  |  | 
D4 | G4G2G2A4A2A2 | B4d4c4 |  |  |  |  |  |  |  |  |  |  |  |  |  |  |  |  |  |  |  |  |  |  |  |  |  |  |  |  |  |  |  |  |  | 
b4 | B4G4A4F4 | G12

